X: 38982
T: Swallow's Tail, The
R: reel
M: 4/4
K: Edorian
BEFE BEFE|FABc dedB|A2 (3FED ADFD|FABc dfed|
BEFE BEFE|FABc d2Bd|eBdB AFDE|(3FED (3AFD E2FA:|
Beef edBA|FABc dedB|A2 (3FED ADFD|FABc dfed|
Beef edBA|FAfA d2Bd|eBdB AFDE|(3FED (3AFD E2FA:|

